tools/download-figma-icons/icons/outlined-medium/efficiency.svg

<svg width="24" height="24" viewBox="0 0 24 24" fill="none" xmlns="http://www.w3.org/2000/svg">
<path fill-rule="evenodd" clip-rule="evenodd" d="M22.5001 13.5H20.1218C19.7858 13.5 19.4903 13.7235 19.3996 14.0468C19.2293 14.655 18.9863 15.2362 18.6788 15.7762C18.5116 16.0695 18.5611 16.4392 18.7996 16.6777L20.4848 18.3638L18.3638 20.4847L16.6778 18.7995C16.4386 18.561 16.0681 18.5107 15.7763 18.6788C15.2363 18.9862 14.6551 19.2292 14.0468 19.3995C13.7236 19.4902 13.5001 19.7857 13.5001 20.1217V22.5H10.5001V20.1488C10.5001 19.8097 10.2721 19.5128 9.9443 19.4242C9.78905 19.383 9.6053 19.35 9.4013 19.3155C8.8178 19.2165 8.16605 19.1017 7.6628 18.5505L9.52805 16.5518C10.3681 17.181 11.5801 17.25 12.0001 17.25C14.8943 17.25 17.2501 14.8942 17.2501 12C17.2501 10.0927 16.2293 8.3985 14.5846 7.57875C14.2126 7.39125 13.7641 7.54575 13.5788 7.9155C13.3936 8.286 13.5451 8.736 13.9156 8.92125C15.0466 9.48525 15.7501 10.6657 15.7501 12C15.7501 14.0677 14.0678 15.75 12.0001 15.75C11.5051 15.75 10.9223 15.6442 10.5586 15.4478L13.2983 12.5122C13.5023 12.294 13.5571 11.9753 13.4378 11.7015C13.3193 11.427 13.0486 11.25 12.7501 11.25H9.1013L11.8268 7.98075C12.0128 7.7565 12.0526 7.44525 11.9288 7.182C11.8058 6.91875 11.5411 6.75 11.2501 6.75H4.6283L3.5153 5.63625L5.6363 3.51525L7.21805 5.09625C7.45655 5.33475 7.82555 5.38425 8.11955 5.21775C8.68655 4.8945 9.30005 4.644 9.94355 4.47225C10.2713 4.38525 10.5001 4.0875 10.5001 3.74775V1.5H13.5001V3.774C13.5001 4.11 13.7236 4.40475 14.0468 4.49625C14.6716 4.67175 15.2738 4.92675 15.8348 5.25375C16.1273 5.42325 16.5016 5.37675 16.7423 5.136L18.3638 3.51525L20.4848 5.63625L18.8386 7.2825C18.6016 7.5195 18.5506 7.88625 18.7141 8.17875C19.0156 8.718 19.2548 9.312 19.4243 9.94425C19.5128 10.272 19.8098 10.5 20.1488 10.5H22.5001V13.5ZM5.84632 14.5695C5.70532 14.3692 5.47732 14.25 5.23282 14.25H2.07532L5.66857 8.2605C5.67082 8.25675 5.67232 8.25375 5.67382 8.25H9.64882L6.92332 11.5192C6.73732 11.7435 6.69757 12.0547 6.82132 12.318C6.94432 12.5812 7.20907 12.75 7.50007 12.75H11.0243L4.20082 20.061L5.93782 15.255C6.02032 15.0247 5.98657 14.769 5.84632 14.5695ZM23.2501 9H20.7061C20.5861 8.64 20.4458 8.29125 20.2868 7.95525L22.0763 6.1665C22.3688 5.87325 22.3688 5.3985 22.0763 5.106L18.8941 1.92375C18.6016 1.63125 18.1268 1.63125 17.8336 1.92375L16.0771 3.68025C15.7283 3.50625 15.3683 3.354 15.0001 3.225V0.75C15.0001 0.33525 14.6648 0 14.2501 0H9.75006C9.33531 0 9.00006 0.33525 9.00006 0.75V3.1905C8.61831 3.318 8.24631 3.47025 7.88781 3.64425L6.16656 1.92375C5.87331 1.63125 5.39856 1.63125 5.10606 1.92375L1.92381 5.106C1.63131 5.3985 1.63131 5.87325 1.92381 6.1665L3.95556 8.199L0.107313 14.6138C-0.0321874 14.8463 -0.0359374 15.135 0.0975626 15.3698C0.231063 15.6053 0.480063 15.75 0.750063 15.75H4.16406L1.54506 22.995C1.42356 23.3295 1.55481 23.7038 1.85931 23.8905C1.98006 23.964 2.11506 24 2.25006 24C2.45256 24 2.65206 23.9183 2.79831 23.7623L6.63756 19.6493C7.41081 20.442 8.34906 20.655 9.00006 20.7682V23.25C9.00006 23.6647 9.33531 24 9.75006 24H14.2501C14.6648 24 15.0001 23.6647 15.0001 23.25V20.6722C15.3451 20.5515 15.6826 20.4113 16.0088 20.2515L17.8336 22.0763C18.1268 22.3687 18.6016 22.3687 18.8941 22.0763L22.0763 18.894C22.3688 18.6015 22.3688 18.1267 22.0763 17.8335L20.2516 16.0087C20.4113 15.6825 20.5516 15.345 20.6716 15H23.2501C23.6648 15 24.0001 14.6648 24.0001 14.25V9.75C24.0001 9.33525 23.6648 9 23.2501 9Z" fill="black"/>
</svg>

<svg width="24" height="24" viewBox="0 0 24 24" fill="none" xmlns="http://www.w3.org/2000/svg"><path fill-rule="evenodd" clip-rule="evenodd" d="M22.5 13.5h-2.378a.75.75 0 0 0-.722.547 7.683 7.683 0 0 1-.721 1.73.75.75 0 0 0 .12.9l1.686 1.687-2.121 2.12-1.686-1.685a.75.75 0 0 0-.902-.12 7.66 7.66 0 0 1-1.73.72.75.75 0 0 0-.546.723V22.5h-3v-2.351a.751.751 0 0 0-.556-.725 6.312 6.312 0 0 0-.543-.108c-.583-.1-1.235-.214-1.738-.765l1.865-2c.84.63 2.052.699 2.472.699A5.257 5.257 0 0 0 17.25 12c0-1.907-1.02-3.601-2.665-4.421a.75.75 0 1 0-.669 1.343c1.13.563 1.834 1.744 1.834 3.078A3.754 3.754 0 0 1 12 15.75c-.495 0-1.078-.106-1.441-.302l2.74-2.936a.75.75 0 0 0-.549-1.262H9.101l2.726-3.27a.75.75 0 0 0-.577-1.23H4.628L3.515 5.636l2.121-2.12 1.582 1.58a.751.751 0 0 0 .902.122 7.682 7.682 0 0 1 1.824-.746.75.75 0 0 0 .556-.724V1.5h3v2.274c0 .336.224.63.547.722.625.176 1.227.43 1.788.758a.75.75 0 0 0 .907-.118l1.622-1.62 2.12 2.12-1.645 1.646a.75.75 0 0 0-.125.897c.302.539.54 1.133.71 1.765a.751.751 0 0 0 .725.556H22.5v3ZM5.846 14.57a.75.75 0 0 0-.613-.32H2.075L5.67 8.26a.069.069 0 0 0 .005-.01H9.65l-2.726 3.27a.75.75 0 0 0 .577 1.23h3.524l-6.823 7.311 1.737-4.806a.751.751 0 0 0-.092-.686ZM23.25 9h-2.544c-.12-.36-.26-.709-.42-1.045l1.79-1.788a.75.75 0 0 0 0-1.061l-3.182-3.182a.75.75 0 0 0-1.06 0L16.077 3.68A9.31 9.31 0 0 0 15 3.225V.75a.75.75 0 0 0-.75-.75h-4.5A.75.75 0 0 0 9 .75v2.44c-.382.128-.754.28-1.112.454l-1.721-1.72a.75.75 0 0 0-1.06 0L1.923 5.106a.75.75 0 0 0 0 1.06L3.956 8.2.107 14.614A.75.75 0 0 0 .75 15.75h3.414l-2.619 7.245a.75.75 0 0 0 1.253.767l3.84-4.113c.773.793 1.711 1.006 2.362 1.12v2.481c0 .415.335.75.75.75h4.5a.75.75 0 0 0 .75-.75v-2.578a9.01 9.01 0 0 0 1.009-.42l1.825 1.824a.75.75 0 0 0 1.06 0l3.182-3.182a.75.75 0 0 0 0-1.06l-1.824-1.825c.16-.327.3-.664.42-1.009h2.578a.75.75 0 0 0 .75-.75v-4.5a.75.75 0 0 0-.75-.75Z" fill="currentColor"/></svg>
